!!! OTL: Wu^,Ge-,Mu\,Yang/ (A Sheepman)
!!! YEC: Copyright 2001, Chia-wei Lee
!! For Voice ONly
!! [Moderato]
**kern	**silbe
*clefG2	*LXinhua
*G:	*ping-ying
*M2/4	*
=13	=13
(8b	Zheng-
8dd)	|
q8ee	Yuie\
8.gg	|
16ee	Ge/
=14	=14
Q16dd	Li^
Q16b*	|
2dd	|
=15	=15
(16ee	Zheng-
16gg	|
16ee	|
16dd)	|
(16b	Yuie\
8dd	|
16e)	|
=16	=16
(8e	|
4.g)	|
=17	=17
8.a	Zheng-
16b	Lai/
q8dd	Yuie\
8.b	|
16gg	Na\
=18	=18
8ee	Shi/
(8dd	Wu^
8b	|
8e)	|
=19	=19
8dd	Gua\
8g	Shang\
(16b	Hong/
16dd	|
16e	|
16g)	|
=20	=20
8g	Don-
4.d	|
*-	*-
